dist/svg/u1F94B.svg

<?xml version="1.0" encoding="UTF-8"?><svg id="a" xmlns="http://www.w3.org/2000/svg" viewBox="0 0 40 40"><g><path d="M31.998,10.289c-1.141-3.571-4.46-5.994-8.209-5.994h-7.577c-3.749,0-7.068,2.424-8.209,5.994L2.18,35.012c-.107,.454,.18,.907,.635,1.005l4.566,.984c.45,.097,.893-.189,.99-.638l3.532-16.322,.544,5.17-1.503,11.67c-.079,.444,.263,.851,.713,.851H28.345c.451,0,.792-.407,.713-.851l-1.503-11.67,.544-5.17,3.348,16.316c.093,.452,.535,.742,.987,.648l4.746-.993c.458-.096,.748-.551,.64-1.006l-5.822-24.718Z" fill="#dbe0e6"/><polygon points="16.035 2.267 23.356 2.267 19.859 11.676 16.035 2.267" fill="#979ea6"/><polygon points="23.356 2.267 13.585 24.777 15.364 25.549 24.518 4.463 23.356 2.267" fill="#afb7c0"/><polygon points="20.482 12.512 16.035 2.267 14.797 4.403 19.221 14.478 20.482 12.512" fill="#afb7c0"/><rect x="11.963" y="24.385" width="16.09" height="1.915" rx=".508" ry=".508" fill="#333d4b"/><path d="M17.03,28.933h9.299c.286,0,.519,.232,.519,.519v.877c0,.286-.232,.519-.519,.519h-9.299v-1.915h0Z" transform="translate(42.29 -1.103) rotate(69.568)" fill="#333d4b"/><path d="M13.169,28.933h9.299c.286,0,.519,.232,.519,.519v.877c0,.286-.232,.519-.519,.519H13.169v-1.915h0Z" transform="translate(52.399 23.384) rotate(110.432)" fill="#333d4b"/></g><rect x="0" width="40" height="40" fill="none"/></svg>

<svg id="Layer_1" data-name="Layer 1" xmlns="http://www.w3.org/2000/svg" viewBox="0 0 40 40"><defs><style>.cls-1{fill:#dbe0e6;}.cls-2{fill:#979ea6;}.cls-3{fill:#afb7c0;}.cls-4{fill:#333d4b;}.cls-5{fill:none;}</style></defs><path class="cls-1" d="M32,10.289A8.617,8.617,0,0,0,23.789,4.3H16.212A8.617,8.617,0,0,0,8,10.289L2.18,35.012a.833.833,0,0,0,.635,1.006L7.381,37a.832.832,0,0,0,.99-.638L11.9,20.042l.543,5.17-1.5,11.67a.724.724,0,0,0,.713.851H28.345a.724.724,0,0,0,.713-.851l-1.5-11.67.544-5.17,3.348,16.317a.834.834,0,0,0,.987.648l4.746-.993a.833.833,0,0,0,.64-1.007Z"/><polygon class="cls-2" points="16.035 2.267 23.356 2.267 19.859 11.676 16.035 2.267"/><polygon class="cls-3" points="23.356 2.267 13.585 24.777 15.364 25.549 24.518 4.463 23.356 2.267"/><polygon class="cls-3" points="20.482 12.512 16.035 2.267 14.797 4.403 19.221 14.478 20.482 12.512"/><rect class="cls-4" x="11.963" y="24.385" width="16.09" height="1.915" rx="0.508"/><path class="cls-4" d="M17.03,28.933h9.3a.519.519,0,0,1,.519.519v.877a.519.519,0,0,1-.519.519h-9.3a0,0,0,0,1,0,0V28.933A0,0,0,0,1,17.03,28.933Z" transform="translate(42.29 -1.103) rotate(69.568)"/><path class="cls-4" d="M13.169,28.933h9.3a.519.519,0,0,1,.519.519v.877a.519.519,0,0,1-.519.519h-9.3a0,0,0,0,1,0,0V28.933a0,0,0,0,1,0,0Z" transform="translate(52.399 23.384) rotate(110.432)"/><rect class="cls-5" width="40" height="40"/></svg>
